icon-themes/elementary_svg/cmd/sc_deleteslide.svg

<svg height="16" width="16" xmlns="http://www.w3.org/2000/svg" xmlns:xlink="http://www.w3.org/1999/xlink"><linearGradient id="a"><stop offset="0" stop-color="#fff"/><stop offset="0" stop-color="#fff" stop-opacity=".235"/><stop offset="1" stop-color="#fff" stop-opacity=".157"/><stop offset="1" stop-color="#fff" stop-opacity=".392"/></linearGradient><linearGradient id="b" gradientTransform="matrix(.33196 0 0 .24402 22.863 1.552)" gradientUnits="userSpaceOnUse" x1="-51.786" x2="-51.786" y1="50.786" y2="2.906"><stop offset="0" stop-opacity=".318"/><stop offset="1" stop-opacity=".24"/></linearGradient><linearGradient id="c" gradientTransform="matrix(.22297 0 0 .27027 .274 2.014)" gradientUnits="userSpaceOnUse" x1="11.003" x2="11.003" xlink:href="#a" y1="7.35" y2="40.65"/><linearGradient id="d" gradientTransform="matrix(.35135 0 0 .27027 -.432 2.014)" gradientUnits="userSpaceOnUse" x1="24" x2="24" xlink:href="#a" y1="7.35" y2="40.444"/><linearGradient id="e" gradientTransform="matrix(.34286 0 0 .239 .77 2.397)" gradientUnits="userSpaceOnUse" x1="25.132" x2="25.132" y1=".985" y2="47.013"><stop offset="0" stop-color="#f4f4f4"/><stop offset="1" stop-color="#dbdbdb"/></linearGradient><linearGradient id="f" gradientUnits="userSpaceOnUse" x1="2.106" x2="2.106" y1="2.532" y2="14.492"><stop offset="0" stop-color="#ffa154"/><stop offset="1" stop-color="#f37329"/></linearGradient><linearGradient id="g" gradientTransform="matrix(.36872 0 0 .38857 7.576 7.143)" gradientUnits="userSpaceOnUse" x1="11.192" x2="11.192" y1="4.064" y2="30.298"><stop offset="0" stop-color="#ed5353"/><stop offset="1" stop-color="#c6262e"/></linearGradient><linearGradient id="h" gradientTransform="matrix(.196 -.2063 .196 .2063 2.398 11.792)" gradientUnits="userSpaceOnUse" x1="36.011" x2="16.331" xlink:href="#i" y1="13.023" y2="32.702"/><linearGradient id="i"><stop offset="0" stop-color="#fff"/><stop offset=".508" stop-color="#fff" stop-opacity=".235"/><stop offset=".835" stop-color="#fff" stop-opacity=".157"/><stop offset="1" stop-color="#fff" stop-opacity=".392"/></linearGradient><linearGradient id="j" gradientTransform="matrix(.196 -.20632 .196 .20632 2.2 11.896)" gradientUnits="userSpaceOnUse" x1="28.449" x2="16.331" xlink:href="#i" y1="20.584" y2="32.702"/><path d="m3 3h12v11h-12z" fill="url(#e)"/><path d="m14 9a3 3 0 1 1 -1.587-2.646l-1.413 2.646z" fill="url(#f)" opacity=".5"/><path d="m14 9.01c0 1.3-.946 2.543-2.2 2.89-1.253.347-2.704-.233-3.372-1.35-.006.007 2.572-1.54 2.572-1.54z" fill="url(#f)" opacity=".5"/><path d="m3 14.5h12.5v-12h-12.5" fill="none" stroke="url(#b)" stroke-linejoin="round"/><path d="m14.5 13.5h-13v-10h13z" fill="none" stroke="url(#d)" stroke-linecap="round"/><path d="m3 14.5h-2.5c.002-3.655.002-11.52 0-12h2.5" fill="url(#f)"/><g fill="none"><path d="m3 14.5h-2.376c-.233-.142-.056-.424-.11-.625v-11.305l.03-.05.08-.02h2.376" opacity=".4" stroke="#cc3b02" stroke-linejoin="round"/><path d="m2.5 13.5h-1v-10h1" opacity=".5" stroke="url(#c)" stroke-linecap="square"/><path d="m4 7.5h2m-2 2h1m-1 2h3m-1-2h1" stroke="#aaa"/></g><path d="m14 9c0 1.3-.946 2.543-2.2 2.89-.03-.005-.8-2.89-.8-2.89z" fill="url(#f)"/><path d="m15.503 14.06-2.028-2.06 1.952-2.16-1.407-1.337-2.01 2.057-2.05-2.057-1.46 1.387 2.05 2.1-2.05 2.067 1.463 1.44 2.05-2.16 2.05 2.16z" fill="url(#g)" stroke="#b10000" stroke-linejoin="round"/><g fill="none"><path d="m14.024 9.92-1.996 2.06-2.082-2.058" opacity=".5" stroke="url(#h)" stroke-linecap="square" stroke-linejoin="round"/><path d="m14.365 14.47-1.658-1.9m-1.422.082-1.73 1.723" opacity=".4" stroke="url(#j)"/></g></svg>

<svg xmlns="http://www.w3.org/2000/svg" xmlns:xlink="http://www.w3.org/1999/xlink" width="16" height="16"><defs><linearGradient id="c"><stop offset="0" stop-color="#fff"/><stop offset="0" stop-color="#fff" stop-opacity=".235"/><stop offset="1" stop-color="#fff" stop-opacity=".157"/><stop offset="1" stop-color="#fff" stop-opacity=".392"/></linearGradient><linearGradient id="d"><stop offset="0" stop-color="#f4f4f4"/><stop offset="1" stop-color="#dbdbdb"/></linearGradient><linearGradient id="a"><stop offset="0" stop-opacity=".318"/><stop offset="1" stop-opacity=".24"/></linearGradient><linearGradient id="b"><stop offset="0" stop-color="#fff"/><stop offset="0" stop-color="#fff" stop-opacity=".235"/><stop offset="1" stop-color="#fff" stop-opacity=".157"/><stop offset="1" stop-color="#fff" stop-opacity=".392"/></linearGradient><linearGradient xlink:href="#a" id="i" gradientUnits="userSpaceOnUse" gradientTransform="matrix(.33196 0 0 .24402 22.863 1.552)" x1="-51.786" y1="50.786" x2="-51.786" y2="2.906"/><linearGradient xlink:href="#b" id="k" gradientUnits="userSpaceOnUse" gradientTransform="matrix(.22297 0 0 .27027 .274 2.014)" x1="11.003" y1="7.35" x2="11.003" y2="40.65"/><linearGradient xlink:href="#c" id="j" gradientUnits="userSpaceOnUse" gradientTransform="matrix(.35135 0 0 .27027 -.432 2.014)" x1="24" y1="7.35" x2="24" y2="40.444"/><linearGradient xlink:href="#d" id="g" gradientUnits="userSpaceOnUse" gradientTransform="matrix(.34286 0 0 .239 .77 2.397)" x1="25.132" y1=".985" x2="25.132" y2="47.013"/><linearGradient id="e"><stop offset="0" stop-color="#ffa154"/><stop offset="1" stop-color="#f37329"/></linearGradient><linearGradient xlink:href="#e" id="h" x1="2.106" y1="2.532" x2="2.106" y2="14.492" gradientUnits="userSpaceOnUse"/><linearGradient id="l" gradientTransform="matrix(.36872 0 0 .38857 7.576 7.143)" gradientUnits="userSpaceOnUse" x1="11.192" x2="11.192" y1="4.064" y2="30.298"><stop offset="0" stop-color="#ed5353"/><stop offset="1" stop-color="#c6262e"/></linearGradient><linearGradient id="m" gradientTransform="matrix(.196 -.2063 .196 .2063 2.398 11.792)" gradientUnits="userSpaceOnUse" x1="36.011" x2="16.331" xlink:href="#f" y1="13.023" y2="32.702"/><linearGradient id="f"><stop offset="0" stop-color="#fff"/><stop offset=".508" stop-color="#fff" stop-opacity=".235"/><stop offset=".835" stop-color="#fff" stop-opacity=".157"/><stop offset="1" stop-color="#fff" stop-opacity=".392"/></linearGradient><linearGradient id="n" gradientTransform="matrix(.196 -.20632 .196 .20632 2.2 11.896)" gradientUnits="userSpaceOnUse" x1="28.449" x2="16.331" xlink:href="#f" y1="20.584" y2="32.702"/></defs><path d="M3 3h12v11H3V3z" fill="url(#g)"/><path d="M14 9a3 3 0 1 1-1.587-2.646L11 9z" style="isolation:auto;mix-blend-mode:normal;font-variant-east_asian:normal" color="#000" overflow="visible" opacity=".5" solid-color="#000000" fill="url(#h)"/><path style="isolation:auto;mix-blend-mode:normal;font-variant-east_asian:normal" d="M14 9.01c0 1.3-.946 2.543-2.2 2.89-1.253.347-2.704-.233-3.372-1.35C8.422 10.557 11 9.01 11 9.01z" color="#000" overflow="visible" opacity=".5" solid-color="#000000" fill="url(#h)"/><path d="M3 14.5h12.5v-12H3" fill="none" stroke="url(#i)" stroke-linejoin="round"/><path d="M14.5 13.5h-13v-10h13z" fill="none" stroke="url(#j)" stroke-linecap="round"/><path d="M3 14.5H.5c.002-3.655.002-11.52 0-12H3" color="#000" overflow="visible" fill="url(#h)"/><path d="M3 14.5H.624c-.233-.142-.056-.424-.11-.625V2.57l.03-.05.08-.02H3" style="font-variant-east_asian:normal" opacity=".4" color="#000" fill="none" stroke="#cc3b02" stroke-linejoin="round" overflow="visible"/><path d="M2.5 13.5h-1v-10h1" opacity=".5" fill="none" stroke="url(#k)" stroke-linecap="square"/><g fill="none" stroke="#aaa"><path d="M4 7.5h2M4 9.5h1M4 11.5h3M6 9.5h1"/></g><path style="isolation:auto;mix-blend-mode:normal;font-variant-east_asian:normal" d="M14 9c0 1.3-.946 2.543-2.2 2.89C11.77 11.885 11 9 11 9z" color="#000" overflow="visible" solid-color="#000000" fill="url(#h)"/><g><path d="M15.503 14.06L13.475 12l1.952-2.16-1.407-1.337-2.01 2.057-2.05-2.057L8.5 9.89l2.05 2.1-2.05 2.067 1.463 1.44 2.05-2.16 2.05 2.16z" fill="url(#l)" stroke="#b10000" stroke-linejoin="round"/><path d="M14.024 9.92l-1.996 2.06-2.082-2.058" opacity=".5" fill="none" stroke="url(#m)" stroke-linecap="square" stroke-linejoin="round"/><path d="M14.365 14.47l-1.658-1.9m-1.422.082l-1.73 1.723" opacity=".4" fill="none" stroke="url(#n)"/></g></svg>
